!!!COM: Richard Strauss
!!!CNT: Deutscher
!!!TXO: Deutsche 
!!!OTL: Die Georgine
!!!OPS: Opus 10
!!!ONM: No. 4
!!!LYR: Hermann v. Gilm
!!!ENC: Brian Bice
!!!YOR: Lieder, Complete Edition, vol. 1
!!!ODT: 1885/
!!NB: Vocal melody and text only encoded.
**kern	**silbe
*clefG2	*
*k[f#]	*
*M4/4	*
=5	=5
2r	.
8r	.
{8g	{War-
8g	-um
8g	so
=6	=6
4dd	spa2t
4cc	erst,
8r	.
4dd#	Ge-
8ee	-or-
=7	=7
4ee	-gi-
4b}	-ne?}
4r	.
8r	.
{8g	{Das
=8	=8
(4g	Ro-
8a)	|
8b	-sen-
8cc	-ma2r-
8ee	-chen
8dd	ist
8cc	er-
=9	=9
4.b}	-za2hlt}
{8b	{und
4ff#	ho-
4a	-nig-
=10	=10
4g	-satt
12g	hat
12a	sich
12b	die
4dd	Bie-
4b}	-ne}
=11	=11
8r	.
{8g#	{ihr
8a#	Bett
8b	zum
4.dd	Schlum-
8b	-mer
=12	=12
4f#	aus-
4f#	-ge-
2f#}	-wahlt.}
=15	=15
2r	.
8r	.
{8g	{Sind
8g	nicht
8g	zu
=16	=16
4dd	kalt
4cc	dir
8r	.
4dd#	die-
8ee	-se
=17	=17
4ee	Na2ch-
4b}	-te?}
8r	.
{8b	{Wie
8a#	lebst
8b	du
=18	=18
4.dd#	die-
8dd#	-se
(4cc#	Ta-
8dd#)	|
8ee	-ge
=19	=19
4dd#}	hin?}
4r	.
8r	.
{8ddn	{Wenn
8ddn	ich
8ddn	dir
=20	=20
2.gg	jetzt
4gg	den
=21	=21
4ff#	Fru2h-
4ee	-ling
4dd	bra2ch-
4a}	-te,}
=22	=22
2r	.
4r	.
{4b	{du
=23	=23
4cc	feu-
4cc#	-er-
4.dd	-gel-
8a	-be
=24	=24
4.cc	Tra2u-
8b	-mer
8b}	in,}
{8g	{wenn
8f#	ich
8g	mit
=25	=25
4dd	Mai-
4cc	-tau
8r	.
4a#	dich
8b	be-
=26	=26
4ff#	-netz-
2ee}	-te,}
{4dd#	{be-
=27	=27
4.ddn	-go2s-
8ddn	-se
4.ee	dich
8ee	mit
=28	=28
4.aa	Ju-
8cc	-ni-
2cc}	-licht,}
=29	=29
8r	.
{8f#	{doch
4b	ach,
4r	.
4b	dann
=30	=30
4.b	wa2rst
8b	du
4.a#	nicht
8a#	die
=31	=31
4g#	Letz-
4g#}	-te,}
8r	.
{8g#	{die
8g#	stol-
8g#	-ze
=32	=32
[2cc#	Ein-
8cc#]	|
8cc#	-zi-
4b	-ge
=33	=33
4a#	auch
4dd#}	nicht.}
2r	.
=38	=38
2r	.
4r	.
{4g	{Wie,
=39	=39
8r	.
4dd	Tra2u-
8cc	-m'rin,
8r	.
8dd#	lock'
8dd#	ich
8ee	ver-
=40	=40
4ee	-ge-
4b}	-bens?}
4r	.
{4g	{so
=41	=41
(4g	reich'
8a)	|
8b	mir
8cc	schwes-
8ee	-ter-
8dd	-lich
8cc	die
=42	=42
2b}	Hand,}
8r	.
{8b	{ich
8b	hab
8a	den
=43	=43
4g	Mai-
4g	-tag
4.g	die-
8f#	-ses
=44	=44
4f#	Le-
4e}	-bens,}
8r	.
{8e	{wie
8e	du
8e	den
=45	=45
4.cc	Fru2h-
8cc	-ling
4.b	nicht
8b	ge-
=46	=46
2a#}	-kannt;}
8r	.
{8a#	{und
8cc#	spa2t
8b	wie
=47	=47
2.ee	dir,
4ee	du
=48	=48
4dd#	Feu-
4cc#	-er-
4b	-gel-
4f#}	-be,}
=49	=49
8r	.
{8b	{stahl
8b	sich
8b	die
(4gg#	Lie-
8ff#)	|
8ee	-be
=50	=50
4dd#	mir
4cc#	ins
4.b}	Herz;}
{8f#	{ob
=51	=51
4.a	spa2t,
8a	ob
8g#	fru2h,
8e	es
8d#	ist
8e	das-
=52	=52
4dd#	-sel-
8cc#	-be
8cc#	Ent-
4a#	-zu2-
4b}	-cken}
=56	=56
8r	.
{4e	{und
8e	der-
4.e	-sel-
8dn	-be
=57	=57
2g}	Schmerz,}
2r	.
=59	=59
2r	.
8r	.
{4f#	{und
8e	der-
=60	=60
2.b	-sel-
4B	-be
=61	=61
2e}	Schmerz.}
2r	.
*-	*-
